fa/person-falling.svg

<svg xmlns="http://www.w3.org/2000/svg" viewBox="0 0 448 512" height="1em" width="1em">
  <path d="M256 0c17.7 0 32 14.33 32 32v9.84c0 54.61-27.9 104.66-72.5 133.56l.2.4 56.8 79.3H360c15.1 0 29.3 8 38.4 20.1l43.2 57.6c10.6 14.1 7.7 33.3-6.4 44.8-14.1 10.6-34.2 7.7-44.8-6.4L352 319.1h-97.4l92.3 143.5c9.6 14.9 5.3 34.7-9.5 44.3-14.9 9.6-34.7 5.3-44.3-9.5L132.5 249.2c-2.9 9.2-5.4 18.9-5.4 29v72.9c0 18.6-13.4 32-32 32-16.77 0-32-13.4-32-32v-72.9c0-65.2 40.5-123.7 101-147.9 36.2-14.5 59-49.51 59-88.46V32c0-17.67 15.2-32 32.9-32zM32 80c0-26.51 21.49-48 48-48 26.5 0 48 21.49 48 48 0 26.5-21.5 48-48 48-26.51 0-48-21.5-48-48z"/>
</svg>

<svg xmlns="http://www.w3.org/2000/svg" viewBox="0 0 448 512" height="1em" width="1em">
  <path d="M256 0C273.7 0 288 14.33 288 32V41.84C288 96.45 260.1 146.5 215.5 175.4L215.7 175.8L272.5 255.1H360C375.1 255.1 389.3 263.1 398.4 275.2L441.6 332.8C452.2 346.9 449.3 366.1 435.2 377.6C421.1 388.2 401 385.3 390.4 371.2L352 319.1H254.6L346.9 462.6C356.5 477.5 352.2 497.3 337.4 506.9C322.5 516.5 302.7 512.2 293.1 497.4L132.5 249.2C129.6 258.4 127.1 268.1 127.1 278.2V351.1C127.1 369.7 113.7 383.1 95.1 383.1C78.33 383.1 63.1 369.7 63.1 351.1V278.2C63.1 213 103.6 154.5 164.1 130.3C200.3 115.8 223.1 80.79 223.1 41.84V32C223.1 14.33 238.3 .0003 256 .0003L256 0zM32 80C32 53.49 53.49 32 80 32C106.5 32 128 53.49 128 80C128 106.5 106.5 128 80 128C53.49 128 32 106.5 32 80z"/>
</svg>
